X: 1
T: Gigue Du Salon
T: Living Room Jig
C: Pascal Gemme (2013)
%D:2013
S: https://natunelist.net/gigue-du-salon-living-room-jig/
R: jig
M: 6/8
L: 1/8
K: A
"^A"\
|: "A"EAB c2e | d2e cBA | "Bm"BcA B2A |     BcA "E7"GFE |
|  "A"EAB c2e | d2e cBA | "Bm"BcA BAF | "E7"EFG  "A"A3 :|
"^B"\
|: "A"e2e cBA | efe cBA | "Bm"BcA B2A |     BcA "E7"GFE |
|1 "A"e2e cBA | efe cBA | "Bm"BcA BAF | "E7"EFG  "A"A3 :|
|2 "A"EAB c2e | d2e cBA | "Bm"BcA BAF | "E7"EFG  "A"A3 |]
